X:1
T:16 - I lieti amanti
T:Luca Marenzio (1556 - 1599) 1º Libro di Madrigali a quattro voci (Venetia, 1592)
T:Jacopo Sannazaro
T:16 - I lieti amanti
T:© 2018 Ed. Marcos Mato
T:© 2018 Ed. Marcos Mato
T:© 2018 Ed. Marcos Mato
T:© 2018 Ed. Marcos Mato
C:Luca Marenzio (1556 - 1599)
C:1º Libro di Madrigali a quattro voci (Venetia, 1592)
Z:Jacopo Sannazaro
Z:© 2018 Ed. Marcos Mato
%%score [ 1 2 3 4 ]
L:1/8
M:4/4
K:C
V:1 alto1 nm="Soprano" snm="Sop."
V:2 alto nm="Alto" snm="A."
V:3 tenor transpose=-12 nm="Tenor" snm="T."
V:4 bass nm="Basso" snm="Bajo"
V:1
 G4 | [Ce]2 |[M:3/2] G4 G4 A4 | B8 c4 | A6 A2 A4 | G4 ^F6 F2 |[M:4/2] G16 | z8 G4 B2 B2 | %8
w: ||I lie- ti\_a-|man- ti\_e|le fan- ciul-|le te- ne-|re|gi- van di|
 d2 d2 B4 G4 G2 c2 | B3 B B4 z2 G2 GABc | d4 d4 e4 A4 | B3 A G4 z2 A3 G F2- | F2 E2 D3 D E8 | %13
w: prat' in pra- to ra- men-|tan- do- si il fo- * * *|* co\_et l'ar- co|del fi- gliol, del fl- gliol|_ di Ve- ne- re.|
 c8 B6 c2 | A4 c4 B8 | z8 z4 c4 | B6 c2 A4 c4 | B16 |[M:3/2] B4 d4 c4 | B6 B2 A4 | d4 d4 c4 | %21
w: Non e- ra|ge- lo- sia,|non|e- ra ge- lo-|sia,|ma sol- laz-|zan- do- si,|ma sol- laz-|
 B6 B2 G4 | B4 A4 B4 | c4 d2 c4 c2 | B6 A2 G3 G | A12 | B4 A4 B4 | c4 d2 c4 c2 | B6 G2 ^F3 F | %29
w: zan- do- si|mo- vean' i|dol- ci bal- li\_a|suon di ce- te-|ra,|mo- vean' i|dol- ci bal- li\_a|suon di ce- te-|
[M:4/2] G8 z2 B2 d4- | d2 c2 B2 A2 ^G4 G4 | z2 A2 B4 z2 E2 D3 D | C4 z2 E2 D3 D C4 | z4 c8 c2 B2 | %34
w: ra, e'n gui-|* sa di co- lom- bi|ogn' hor bas- cian- do-|si, bas- cian- do- si.|O pu- ra|
 A8 ^G2 G4 G2 | =G4 A4 B3 B B4 | z16 | z8 A6 A2 | d8 c4 c4 | B4 z4 z2 B2 e2 c2 | %40
w: fe- de,\_o dol- ce\_u-|san- za ve- te- ra!||Hor co-|nos- co ben|io che'l mond' ins-|
 d3 d e4 z2 G4 ^F2 | G4 G3 G G8 | z2 e3 e d2 c3 B A2 B2- | BA G2 A3 A G8 | B8 c2 ed cBAG | %45
w: ta- bi- le, che'l mond'|ins- ta- bi- le|tan- to peg- gio- ra più quan-|* to più\_in- ve- te- ra,|quan- to più _ _ _ _ _|
 ^F2 G4 F2 G8 |] %46
w: in- ve- te- ra.|
V:2
 D4 | [G,A]2 |[M:3/2] D4 E4 ^F4 | G8 G4 | F6 F2 F4 | D4 D6 D2 |[M:4/2] D8 G,4 B,2 B,2 | %7
w: ||I lie- ti\_a-|man- ti\_e|le fan- ciul-|le te- ne-|re gi- van di|
 D2 D2 B,4 G,4 D4- | D2 B,2 B,3 B, B,2 C2 CDEF | G4 D4 z2 D2 EFGE | ^F4 G8 F4 | D4 E3 D C4 z2 A2- | %12
w: prat' in pra- to ra-|* men- tan- do- si il fo- * * *|* co, il fo- * * *|* co\_et l'ar-|co del fi- gliol di|
 A2 G4 G2 G8 | z4 C4 G4 E4 | F4 A4 G8 | z8 z4 z2 C2 | G4 E4 F4 A4 | G16 |[M:3/2] D4 G4 E4 | %19
w: _ Ve- ne- re.|Non e- ra|ge- lo- sia,|non|e- ra ge- lo-|sia,|ma sol- laz-|
 D6 G2 E4 | G4 G4 E4 | G6 G2 C4 | G4 ^F4 G4 | A4 A2 A4 A2 | G4 D4 E3 E | ^F12 | G4 =F4 G4 | %27
w: zan- do- si,|ma sol- laz-|zan- do- si|mo- vea- no\_i|dol- ci bal- li\_a|suon di ce- te-|ra,|mo- vean' i|
 A4 A2 A4 A2 | G6 E2 D3 D |[M:4/2] D8 z2 D2 G4- | G2 E2 E2 C2 E4 E4 | z2 E2 G4 z2 C2 B,3 B, | %32
w: dol- ci bal- li\_a|suon di ce- te-|ra, e'n gui-|* sa di co- lom- bi|ogn' hor bas- cian- do-|
 C4 z2 C2 B,3 B, C4 | z4 A8 A2 G2 | F8 E2 E4 E2 | E4 E4 G3 G G4 | z16 | z8 z4 F4- | %38
w: si, bas- cian- do- si.|O pu- ra|fe- de,\_o dol- ce\_u-|san- za ve- te- ra!||Hor|
 F2 F2 D4 E4 F4 | G8 z2 G,2 C4 | B,4 A,3 A, G,2 G,2 C4 | B,4 E3 E D8 | z2 G3 G F2 A3 G ^F2 G2- | %43
w: _ co- nos- co ben|io che'l mond'|ins- ta- bi- le, che'l mond'|ins- ta- bi- le|tan- to peg- gio- ra più, quan-|
 GE G2 ^F3 F G4 D4- | D4 D4 E8 | D6 D2 D8 |] %46
w: * to più\_in- ve- te- ra, quan-|* to più\_in-|ve- te- ra.|
V:3
 B,4 | [D,F]2 |[M:3/2] B,4 B,4 D4 | D8 E4 | C6 C2 C4 | B,4 A,6 A,2 |[M:4/2] G,8 z4 G,4 | %7
w: ||I lie- ti\_a-|man- ti\_e|le fan- ciul-|le te- ne-|re gi-|
 B,2 B,2 D2 D2 B,4 G,4 | ^F,2 G,2 D3 D E8 | z2 G,2 G,A,B,C DCB,A, G,4 | A,4 G,3 F, E,4 D,2 D2- | %11
w: van- di prat' in pra- to|ra- men- tan- do- si|il fo- * * * * * * * *|co\_et l'ar- * * co del|
 DC B,2 C3 B, A,4 A,2 D2- | DC C4 B,2 C8 | z16 | z8 z4 D4 | C6 B,2 A,4 C4 | D4 z4 z8 | z16 | %18
w: _ fi- gliol, del fi- gliol di Ve-|* * * ne- re.||Non|e- ra ge- lo-|sia,||
[M:3/2] B,4 D4 C4 | B,6 B,2 G,4 | B,4 D4 C4 | B,6 B,2 G,4 | D4 D4 D4 | F4 F2 F4 F2 | %24
w: ma sol- laz-|zan- do- si,|ma sol- laz-|zan- do- si|mo- vean' i|dol- ci bal- li\_a|
 D6 A,2 B,3 B, | D12 | D4 D4 D4 | F4 F2 F4 F2 | D6 C2 A,3 A, |[M:4/2] G,8 z2 G,2 B,4- | %30
w: suon di ce- te-|ra,|mo- ven' i|dol- ci bal- li\_a|suon di ce- te-|ra, e'n gui-|
 B,2 A,2 ^G,2 A,2 B,4 B,4 | C4 z2 D2 E4 z4 | z2 E2 E4 z8 | z4 F8 F2 D2 | D8 B,2 B,4 B,2 | %35
w: * sa di co- lom- bi\_ogn'|hor, ogn' hor,|ogn' hor.|O pu- ra|fe- de,\_o dol- ce\_u-|
 B,4 C4 D3 D D4 | z4 C6 C2 A,4 | B,4 C4 D8 | z16 | z2 D2 E2 C2 D3 D E4 | z2 B,2 E2 C2 D3 D E2 A,2 | %41
w: san- za ve- te- ra!|Hor co- nos-|co ben io||che'l mond' ins- ta- bi- le,|che'l mond' ins- ta- bi- le, che'l|
 D2 D2 C3 C B,8 | z2 C3 C A,2 A,3 D D2 D2- | DC B,2 D3 D D8 | G,8 G,4 A,4 | %45
w: mond' ins- ta- bi- le|tan- to peg- gio- ra più, quan-|* to più\_in- ve- te- ra,|quan- to più\_in-|
 B,3 A,/G,/ A,3 A, G,8 |] %46
w: ve- * * * te- ra.|
V:4
 G,4 | [G,,D]2 |[M:3/2] G,4 E,4 D,4 | G,8 C,4 | F,6 F,2 F,4 | G,4 D,6 D,2 |[M:4/2] G,,16- | %7
w: ||I liet- ti\_a-|man- ti\_e|le fan- ciul-|le te- ne-|re|
 G,,8 z8 | z4 G,4 E,2 E,2 C,2 C,2 | E,4 G,4 ^F,2 G,2 E,3 E, | D,4 z2 G,2 G,A,B,C D2 D,2 | %11
w: _|gi- van di prat' in|pra- to ra- men- tan- do-|si il fo- * * * * co\_et|
 G,4 C,4 F,3 E, D,E,F,G, | A,2 C2 G,3 G, C,8 | z16 | z8 z4 G,4 | C,4 E,4 F,4 A,4 | G,4 z4 z8 | %17
w: l'ar- co del fi- gliol _ _ _|_ di Ve- ne- re.||Non|e- ra ge- lo-|sia,|
 z16 |[M:3/2] G,4 G,4 A,4 | G,6 G,2 C,4 | G,4 G,4 A,4 | G,6 G,2 C,4 | G,4 D,4 G,4 | %23
w: |ma sol- laz-|zan- do- si,|ma sol- laz-|zan- do- si|mo- vean' i|
 F,4 F,2 F,4 F,2 | G,6 F,2 E,3 E, | D,12 | G,4 D,4 G,4 | F,4 F,2 F,4 F,2 | G,6 C,2 D,3 D, | %29
w: dol- ci bal- li\_a|suon di ce- te-|ra,|mo- vean' i|dol- ci bal- li\_a|suon di ce- te-|
[M:4/2] G,,8 G,4 G,4- | G,2 A,2 E,2 F,2 E,4 E,4 | A,4 z2 G,2 C4 z4 | z2 C,2 C4 z8 | %33
w: ra, e'n gui-|* sa di co- lom- bi\_ogn'|hor, ogn' hor,|ogn' hor.|
 z4 F,8 F,2 G,2 | D,8 E,2 E,4 E,2 | E,4 A,4 G,3 G, G,4 | C,6 C,2 F,8 | E,4 E,4 D,8- | D,8 z8 | %39
w: O pu- ra|fe- de,\_o dol- ce\_u-|san- za ve- te- ra!|Hor co- nos-|co ben io|_|
 z2 G,2 C4 B,4 A,3 A, | G,2 G,2 C4 B,4 A,3 A, | G,2 G,2 C,3 C, G,8 | %42
w: che'l mond' ins- ta- bi-|le, che'l mond' ins- ta- bi-|le, ins- ta- bi- le|
 z2 C,3 C, D,2 F,3 G, D,2 B,,2- | B,,C, E,2 D,3 D, G,,4 G,4- | G,4 G,,4 C,8 | D,6 D,2 G,,8 |] %46
w: tan- to peg- gio- ra più, quan-|* to più\_in- ve- te- ra, quan-|* to più\_in-|ve- te- ra.|

